public/images/weather/cloudy-sun.svg

<svg preserveAspectRatio="none" width="100%" height="100%" overflow="visible" style="display: block;" viewBox="0 0 87.7482 55.25" fill="none" xmlns="http://www.w3.org/2000/svg">
<path id="Vector" d="M42.25 6.5C42.25 6.5 42.25 0 48.75 0C55.25 0 55.25 6.5 55.25 6.5V13C55.25 13 55.25 19.5 48.75 19.5C42.25 19.5 42.25 13 42.25 13V6.5ZM13 42.25C13 42.25 19.5 42.25 19.5 48.75C19.5 55.25 13 55.25 13 55.25H6.5C6.5 55.25 0 55.25 0 48.75C0 42.25 6.5 42.25 6.5 42.25H13ZM25.584 19.6397C25.584 19.6397 30.1795 24.2352 25.584 28.8307C20.9885 33.4262 16.393 28.8307 16.393 28.8307L11.7943 24.2352C11.7943 24.2352 7.19875 19.6397 11.7943 15.041C16.393 10.4455 20.9885 15.041 20.9885 15.041L25.584 19.6397ZM81.1103 28.8307C81.1103 28.8307 76.5148 33.4262 71.9193 28.8307C67.3238 24.2352 71.9193 19.6397 71.9193 19.6397L76.5148 15.0442C76.5148 15.0442 81.1103 10.4487 85.7058 15.0442C90.3013 19.6397 85.7058 24.2352 85.7058 24.2352L81.1103 28.8307Z" fill="var(--fill-0, #FFAC33)"/>
</svg>

<svg xmlns="http://www.w3.org/2000/svg" fill="none" overflow="visible" preserveAspectRatio="none" style="display:block" viewBox="0 0 87.748 55.25"><path fill="var(--fill-0, #ffac33)" d="M42.25 6.5s0-6.5 6.5-6.5 6.5 6.5 6.5 6.5V13s0 6.5-6.5 6.5-6.5-6.5-6.5-6.5zM13 42.25s6.5 0 6.5 6.5-6.5 6.5-6.5 6.5H6.5s-6.5 0-6.5-6.5 6.5-6.5 6.5-6.5zm12.584-22.61s4.596 4.595 0 9.19c-4.596 4.596-9.191 0-9.191 0l-4.599-4.595s-4.595-4.595 0-9.194c4.599-4.596 9.194 0 9.194 0zm55.526 9.19s-4.595 4.596-9.19 0c-4.596-4.595 0-9.19 0-9.19l4.595-4.596s4.595-4.595 9.19 0c4.596 4.596 0 9.191 0 9.191z"/></svg>
